X:1
T: Mid Lothian
C:
R:Reel
Q: 232
K:D
M:4/4
L:1/8
|:B|AF DA GB EG|FD AF DB, B,B|AD FA GB EG|FA EG FD DB|
AF DA GB EG|FD AF DB, B,B|FA d=c BG ed|cA fg fd df1/2g1/2|
af df gb eg|af ed ce cA|a1/2g1/2f1/2e1/2 fd gb eg|fa eg fd dg|
a1/2g1/2f1/2e1/2 fd gb eg|fa fd ce cA|Bd Ad Gd Fd|EB A3/2G1/2 FD D:|
